X: 4328
T: LET ME SUFFER. (il Trovatore.)
%R: air, march
B: James Kerr "Merry Melodies" v.4 p.35 #328
Z: 2016 John Chambers <jc:trillian.mit.edu>
M: C
L: 1/8
K: D
|:!f!\
f6 g2 | (gf) f4 e2 | (ed) d4 B2 | (BA) A4 z2 |\
(BA) A4 z2 | (ed) d4 z2 | (gf) b4 a2 | a6 e2 |\
f6 g2 | (gf) f4 e2 | (ed) d4 B2 | (BA) A4 z2 |\
a6 ^g2 | (ba) f4 d2 | f3g e3f | d6 z2 :|

%%sep 1 1 500
%%sep 1 1 500

